X:1
T:Con la fronte fiorita
T:Luca Marenzio
T:Source : Il primo libro delle Villanelle a tre voci---Venetia---G.Vincenzi---1586. Editor : André Vierendeels (11/05/17).
T:Notes : Original clefs : C1, C2, F4 Square bracket indicates ligature "Terza impressione"
T:Con la fronte fiorita
T:©
T:©
T:©
C:Luca Marenzio
Z:©
%%score [ 1 2 3 ]
L:1/8
Q:1/4=120
M:4/4
K:F
V:1 treble nm="Soprano 1" snm="S 1"
V:2 treble nm="Soprano 2" snm="S 2"
V:3 bass nm="Bass" snm="B"
V:1
"^1)" A3 B c4 | c2 c2 d4 | c2 c4 _e2 | d8 |1[M:2/4] c4 :|2 c2 G2 |:[M:4/4] c3 B A2 A2 | G4 F2 c2 | %8
w: Con la fron-|te fio- ri-|ta'e cri- ni'ar-|den-|ti,|ti, la|va- ga'Au- ro- ra|sor- ge, e|
w: Gor- gheg- gian|pron- t'i ga-|ru- li'Au- ge-|let-|ti,|ti, sol|de- si- an- do'il|So- le, e|
 c3 B A2 A2 | G4 A4 | d6 d2 | c4 B4- | B4 A4- | A8 | GFGA =B2 c2- | c2 =B2 c4- | c4 z4 | d8 | %18
w: lie- ta Flo- ra|por- ge'A-|ra- bi'o-|do- ri'a|_ i|_|lu- sin- ghe- vol ven- *|* * ti,|_|ahi,|
w: le ro- s'e vi-|o- le,|a- pro-|no'a l'au-|* ra'i|_|rug- gia- do- si pet- *|* * ti,|_|ahi,|
 c2 B3 B d2 | ^c4 d4- | d4 z2 B2 | B2 A2 G4- | G4 z2 _e2 | _e2 d2 c4 | B4 A4- | A4 G4- | %26
w: che tut- to gio-|i- sce,|_ so-|lo'il mio cor,|_ so-|lo'il mio cor|lan- gui-||
w: che tut- to'e ri-|den- te,|_ fuor|che'il mio cor|_ fuor|che'il mio cor|do- len-||
 G4 !fermata!F4 :| %27
w: * sce.|
w: * te|
V:2
"^2)""^1)" F3 G A4 | G2 A2 B4 | A2 A4 c2- | c2 =BA B4 |1[M:2/4] c4 :|2 c2 c2 |:[M:4/4] A3 G F2 F2 | %7
w: Con la fron-|te fio- ri-|ta'e cri- ni'ar-|* * * den-|ti,|ti, la|va- ga'Au- ro- ra|
w: Per ver- di|pra- ti van|le fie- re|_ _ _ snel-|le,|le, va-|ghi'e lie- te scher-|
 E4 F2 G2 | A3 G F2 F2 | E4 F4 | B6 B2 | A4 G4- | G4 F4- | F4 CB,CD | E3 F G2 FE | D4 C4- | C4 z4 | %17
w: sor- ge, e|lie- ta Flo- ra|por- ge'A-|ra- bi'o-|do- ri'a|_ i|_ lu- sin- ghe- vol|ven- * * * *|* ti,|_|
w: zan- do, e|l'a- pi su- sur-|ran- do,|fan pre-|da ond'|_ ar-|* ric- chi- scon le|lor- * * * *|cel- le-||
 B8 | A2 G3 G F2 | E4 D2 F2 | F2 F2 G4- | G4 z2 B2 | B2 B2 c4- | c4 z2 G2 | G2 F2 E2 C2 | F6 ED | %26
w: ahi,|che tut- to gio-|i- sce, so-|lo'il mio cor,|_ so-|lo'il mio cor,|_ so-|lo'il mio cor lan-|gui- * *|
w: ahi,|che tut- to s'al-|le- gra, fuor|che la mia|_ fuor|che la mia|_ fuor|che la mia men-|t'e _ _|
 E4 !fermata!F4 :| %27
w: * sce.|
w: _ gra|
V:3
"^3)""^1)""^4)" F,2 F,2 F,4 | E,2 F,2 B,,4 | F,2 F,4 C,2 | G,8 |1[M:2/4] C,4 :|2 C,2 C,2 |: %6
w: Con la fron-|te fio- ri-|ta'e cri- ni'ar-|den-|ti,|ti la|
w: Ma spe- ro|ch'io sa- ro|pur lie- to'un|gior-|no,|no, s'a-|
[M:4/4] F,3 G, A,3 B, | C4 F,2 C,2 | F,3 G, A,3 B, | C4 F,4 | B,,6 B,,2 | F,,4 G,,4- | G,,4 D,4 | %13
w: va- ga'Au- ro- ra|sor- ge, e|lie- ta Flo- ra|por- ge'A-|ra- bi'o-|do- ri'a-|* i|
w: vien che mi con-|so- le, al-|tra'au- ro- ra, al-|tro so-|le, con|l'as- pet|_ ta-|
 D,C,D,E, F,3 E,/D,/ | C,3 B,,/A,,/ G,,4- | G,,4 C,4- | C,4 z4 | B,,8 | F,2 G,3 G, D,2 | %19
w: lu- sin- ghe- vol ven- * *||* ti,|_|ahi,|che tut- to gio-|
w: to suo dol- ce ri- * *|tor- * * *|* no,|_|deh,|tor- n'a me mia|
 A,4 D,2 B,2 | B,2 A,2 G,4- | G,4 z2 _E,2 | _E,2 D,2 C,4- | C,8 | G,,4 A,,4- | A,,2 B,,2 C,4- | %26
w: i- sce, so-|lo'il mio cor,|_ so-|mo'il mio cor,|_|lan gui-|* * i-|
w: gio- ia, e|scac- ci- a,|_ e|scac cia tan-||ta no-||
 C,4 !fermata!F,,4 :| %27
w: * sce.|
w: * ia|

